static/assets/images/exchanges/gyroscope.svg

<svg width="236" height="256" viewBox="0 0 236 256" fill="none" xmlns="http://www.w3.org/2000/svg">
<path d="M160.695 188.775L120.692 172.01C102.881 185.834 72.0536 198.693 63.8529 191.808L63.7458 191.886C78.0172 206.239 97.0646 215.852 118.31 218.154L118.684 217.764C136.892 208.29 149.445 198.225 160.695 188.775Z" fill="url(#paint0_linear_10243_964)"/>
<path d="M128.222 0C57.4073 0 0 57.3079 0 128C0 198.692 57.4073 256 128.222 256C149.645 255.978 170.72 250.598 189.524 240.351C208.328 230.105 224.26 215.319 235.866 197.343H236V114.624H198.261H198.257L178.073 114.583C168.825 128.47 156.704 140.967 144.307 153.326H198.257V184.98C189.81 195.422 179.146 203.863 167.035 209.692C154.924 215.521 141.667 218.593 128.222 218.687C124.873 218.687 121.566 218.506 118.31 218.154C97.0646 215.852 78.0172 206.239 63.7458 191.886L63.7118 191.852L63.8151 191.776L63.8367 191.794L63.8529 191.808L63.9076 191.768C54.442 181.004 69.5911 124.452 139.852 58.4567C101.75 69.942 62.2339 103.162 38.903 143.987L38.7876 144.005C37.861 138.809 37.3774 133.461 37.3774 128C37.3774 77.9148 78.0499 37.3127 128.222 37.3127C143.194 37.375 157.919 41.1305 171.086 48.2452C184.254 55.36 195.455 65.6133 203.695 78.093L234.973 57.312C223.295 39.7108 207.436 25.2669 188.811 15.2672C170.185 5.26755 149.37 0.0227008 128.222 0Z" fill="#EBFF68"/>
<defs>
<linearGradient id="paint0_linear_10243_964" x1="96.1482" y1="208.294" x2="109.917" y2="183.089" gradientUnits="userSpaceOnUse">
<stop stop-color="#EBFF68"/>
<stop offset="1" stop-color="#EBFF68" stop-opacity="0"/>
</linearGradient>
</defs>
</svg>

<svg xmlns="http://www.w3.org/2000/svg" fill="none" viewBox="0 0 236 256"><path fill="url(#paint0_linear_10243_964)" d="m160.695 188.775-40.003-16.765c-17.811 13.824-48.638 26.683-56.84 19.798l-.106.078c14.271 14.353 33.319 23.966 54.564 26.268l.374-.39c18.208-9.474 30.761-19.539 42.011-28.989"/><path fill="#EBFF68" d="M128.222 0C57.407 0 0 57.308 0 128s57.407 128 128.222 128a128.4 128.4 0 0 0 61.302-15.649 128.1 128.1 0 0 0 46.342-43.008H236v-82.719h-37.743l-20.184-.041c-9.248 13.887-21.369 26.384-33.766 38.743h53.95v31.654a90.8 90.8 0 0 1-31.222 24.712 91 91 0 0 1-38.813 8.995c-3.349 0-6.656-.181-9.912-.533-21.245-2.302-40.293-11.915-54.564-26.268l-.034-.034.103-.076.022.018.016.014.055-.04c-9.466-10.764 5.683-67.316 75.944-133.311-38.102 11.485-77.618 44.705-100.949 85.53l-.115.018A91 91 0 0 1 37.378 128c0-50.085 40.672-90.687 90.844-90.687a91 91 0 0 1 42.864 10.932 90.8 90.8 0 0 1 32.609 29.848l31.278-20.781a128.1 128.1 0 0 0-46.162-42.045A128.4 128.4 0 0 0 128.222 0"/><defs><linearGradient id="paint0_linear_10243_964" x1="96.148" x2="109.917" y1="208.294" y2="183.089" gradientUnits="userSpaceOnUse"><stop stop-color="#EBFF68"/><stop offset="1" stop-color="#EBFF68" stop-opacity="0"/></linearGradient></defs></svg>
